X:2
T: Walzer BbFEb (Parts ABAC)
M:3/4
L:1/4
K:Bb %%MIDI gchordon
"Bb"B3 | b3 | f3 | Tfed | "F7"c2d | e2A | "Bb"B2d | "F7"F>F G/A/ | "Bb"B3 | \
"Gm"b3 | "Dm"f3 | "G7"Tfed |
 "Cm"c2d | "F7"e2A | "Bb"B>BB | Bzc/c/ || [K:F] "F"a3 | g/f/ e/d/ g/a/ | \
c3 | cfa | "C7"g2c' | g2c' |
 "F"a2g | fc/d/ e/f/ | a3 | g/f/ e/f/ g/a/ | c3 | \
cfa | "Gm"gd'c' | "C7"bag | "F7"f=ec || \
[K:Bb] "Bb"B3 | b3 |
 f3 | Tfed | "F7"c2d | e2A | "Bb"B2d | "F7"F>F G/A/ | "Bb"B3 | \
"Gm"b3 | "Dm"f3 | "G7"Tfed | "Cm"c2d | "F7"e2A |
 "Bb"B>BB | Bzc/c/ || \
[K:Eb] B/A/ | "Eb"GcB | Gfe | \
"Bb7"db>a | zd/d/ d/d/ | db>a | zd/d/ d/d/ |
 "Eb"eb>g | a/g/ f/e/ d/c/ | BcB | \
Gfe | "Bb7"dba | zd/d/ d/d/ | db>a | zBd | "Eb"(e3 | e)zz |] 

